!! Isochronous pitch passage.
!! Treble-line.
!! From Bartok, Mikrokosmos, Vol. 6, No. 153, measure 29ff
!! Piano
!! Passage contains 115 notes.
!! 8/8 meter (3+3+2)
**kern	**metpos
*M8/8	*M8/8
*tb8	*tb8
=1	=1
{8B	1
8c#	3
8d}	3
{8c#	2
8B	3
8A}	3
{8G#	2
8A#}	3
=2	=2
{8B	1
8c#	3
8d}	3
{8c#	2
8B	3
8A}	2
{8G#	3
8A#}	3
=3	=3
{8B	1
8c#	3
8d}	3
{8c#	2
8B	3
8A}	3
{8G#	2
8A#}	3
=4	=4
{8B	1
8c#	3
8d}	3
{8c#	2
8B	3
8A}	3
{8G#	2
8A#}	3
=5	=5
{8B	1
8c#	3
8d}	3
{8c#	2
8B	3
8A}	3
{8G#	2
8A#}	3
=6	=6
{8B	1
8c#	3
8d}	3
{8c#	2
8B	3
8A}	3
{8G#	2
8A#}	3
=7	=7
{8B	1
8c#	3
8d}	3
{8c#	2
8B	3
8A}	3
8G#	2
8r	3
=8	=8
8r	1
{8A	3
8B}	3
{8c	2
8B	3
8A}	3
{8c#	2
8d#}	3
=9	=9
{8e	1
8f	3
8g}	3
{8a-	2
8g	3
8f}	3
{8an	2
8b}	3
=10	=10
{8b#	1
8cc#	3
8dd#}	3
{8ee	2
8dd#	3
8cc#}	3
{8ffn	2
8gg}	3
=11	=11
{8aa	1
8bb-	3
8ccc}	3
{8ddd	2
8ccc	3
8bb-}	3
{8aa	2
8gg}	3
=12	=12
{8ff	1
8ee	3
8dd}	3
{8cc#	2
8dd	3
8ee}	3
{8ff	2
8gg}	3
=13	=13
{8a	1
8b-	3
8cc}	3
{8dd	2
8cc	3
8b-}	3
{8a	2
8g}	3
=14	=14
{8f	1
8e	3
8d}	3
{8c#	2
8d	3
8e}	3
{8f	2
8g}	3
=15	=15
{8a	1
8b	3
8cc}	3
{8dd	2
8dd#}	3
8r	3
8r	2
8r	3
=16	=16
*-	*-
